server/apps/categories/assets/generic/mono/generic.svg

<?xml version="1.0" encoding="UTF-8" standalone="no"?>
<svg
   id="Capa_1"
   enable-background="new 0 0 511.88 511.88"
   height="512"
   viewBox="0 0 511.88 511.88"
   width="512"
   version="1.1"
   sodipodi:docname="generic.svg"
   inkscape:version="1.4.3 (0d15f75042, 2025-12-25)"
   xmlns:inkscape="http://www.inkscape.org/namespaces/inkscape"
   xmlns:sodipodi="http://sodipodi.sourceforge.net/DTD/sodipodi-0.dtd"
   xmlns="http://www.w3.org/2000/svg"
   xmlns:svg="http://www.w3.org/2000/svg">
  <defs
     id="defs8" />
  <sodipodi:namedview
     id="namedview8"
     pagecolor="#ffffff"
     bordercolor="#000000"
     borderopacity="0.25"
     inkscape:showpageshadow="2"
     inkscape:pageopacity="0.0"
     inkscape:pagecheckerboard="0"
     inkscape:deskcolor="#d1d1d1"
     inkscape:zoom="1.1328125"
     inkscape:cx="199.06207"
     inkscape:cy="232.16552"
     inkscape:window-width="2560"
     inkscape:window-height="1375"
     inkscape:window-x="2240"
     inkscape:window-y="0"
     inkscape:window-maximized="1"
     inkscape:current-layer="g5" />
  <g
     id="g8">
    <g
       id="g5">
      <path
         id="path1"
         style="stroke:#000000;stroke-width:14.852;stroke-dasharray:none;stroke-opacity:1;fill:#000000;fill-opacity:1"
         d="M 255.94 11.768725 C 149.05473 11.768725 72.408806 96.725712 72.408806 201.52502 C 72.408806 347.56761 231.1243 481.33781 253.50112 498.30701 C 254.94237 499.40044 256.93763 499.40044 258.37888 498.30701 C 280.7557 481.33781 439.47119 347.56761 439.47119 201.52502 C 439.47119 96.725712 362.82527 11.768725 255.94 11.768725 z M 253.42301 68.864715 C 318.29065 68.865376 370.87595 110.29677 370.87595 161.40552 C 370.87595 183.59274 360.96582 203.95821 344.44269 219.89962 C 322.90431 240.67957 292.64744 247.99655 255.94 247.99655 C 191.07235 247.99655 141.00405 211.85426 141.00405 160.74552 C 141.00405 131.99718 152.60807 106.96971 178.71201 89.99648 C 199.01461 76.794935 225.04383 68.864715 253.42301 68.864715 z " />
    </g>
  </g>
</svg>

<svg xmlns="http://www.w3.org/2000/svg" viewBox="0 0 511.88 511.88" width="48" height="48"><path d="M255.94 11.769c-106.885 0-183.531 84.957-183.531 189.756 0 146.043 158.715 279.813 181.092 296.782a4.04 4.04 0 0 0 4.878 0c22.377-16.97 181.092-150.74 181.092-296.782 0-104.8-76.646-189.756-183.531-189.756zm-2.517 57.096c64.868 0 117.453 41.432 117.453 92.54 0 22.188-9.91 42.553-26.433 58.495-21.539 20.78-51.796 28.097-88.503 28.097-64.868 0-114.936-36.143-114.936-87.251 0-28.749 11.604-53.776 37.708-70.75 20.303-13.201 46.332-21.131 74.711-21.131z" style="stroke:#000;stroke-width:14.852;stroke-dasharray:none;stroke-opacity:1;fill:#000;fill-opacity:1"/></svg>
